X: 42162
T: Water Under The Keel
R: jig
M: 6/8
K: Dmajor
|:gdc BdG|GAc BdG|gdc BdG|ABc def|
gdc BdG|GAc BdG|gdB edc|dAd G3:|
|:afd g3|afd gab|afd g3|afd cdA|
afd g3|afd gab|afd g3|afd cdA|
afd g3|afd gab|afd g3|gec BcA|
afd g3|afd gab|c'ba bag|afd cdA||

